X:391
T: Women sheli changxinge
N: C1893
O: China,Guangdong Wengyuan
S: II, 367, 1)]
R: Shange]
M: 2/4
L: 1/16
K: D
B2B2B2d2 | e4e4 | B2e2d2B2 | A4A4 |
B2d2e2e2 | c'2c'2c'4 | c'8 | c'4
e4 | B2e2d2A2 | A4A4

@@@ Tune index: 6946
